src/devices/16/network-server.svg

<svg width="16" height="16" version="1.1" xmlns="http://www.w3.org/2000/svg">
 <defs>
  <style id="current-color-scheme" type="text/css">.ColorScheme-Text { color:#363636; } .ColorScheme-Highlight { color:#5294e2; }</style>
 </defs>
 <path d="m2 1c-0.554 0-1 0.446-1 1v3c0 0.554 0.446 1 1 1h12c0.554 0 1-0.446 1-1v-3c0-0.554-0.446-1-1-1h-12zm0 1h12v3h-12v-3zm6 1v1h1v-1h-1zm2 0v1h1v-1h-1zm2 0v1h1v-1h-1zm-10 4c-0.554 0-1 0.446-1 1v3c0 0.554 0.446 1 1 1h12c0.554 0 1-0.446 1-1v-3c0-0.554-0.446-1-1-1h-12zm0 1h12v3h-12v-3zm6 1v1h1v-1h-1zm2 0v1h1v-1h-1zm2 0v1h1v-1h-1zm-10.5 4c-0.277 0-0.5 0.223-0.5 0.5s0.223 0.5 0.5 0.5h1.5v1.5c0 0.277 0.223 0.5 0.5 0.5 0.06925 0 0.13545-0.013828 0.19531-0.039062 0.17958-0.075704 0.30469-0.25319 0.30469-0.46094v-1.5h8v1.5c0 0.277 0.223 0.5 0.5 0.5s0.5-0.223 0.5-0.5v-1.5h1.5c0.277 0 0.5-0.223 0.5-0.5s-0.223-0.5-0.5-0.5h-13z" style="fill:currentColor" class="ColorScheme-Text"/>
</svg>

<svg xmlns="http://www.w3.org/2000/svg" width="16" height="16">
    <defs>
        <style id="current-color-scheme" type="text/css">
            .ColorScheme-Highlight{color:#a0b6cb}
        </style>
    </defs>
    <path d="M2 1c-.554 0-1 .446-1 1v3c0 .554.446 1 1 1h12c.554 0 1-.446 1-1V2c0-.554-.446-1-1-1H2zm0 1h12v3H2V2zm6 1v1h1V3H8zm2 0v1h1V3h-1zm2 0v1h1V3h-1zM2 7c-.554 0-1 .446-1 1v3c0 .554.446 1 1 1h12c.554 0 1-.446 1-1V8c0-.554-.446-1-1-1H2zm0 1h12v3H2V8zm6 1v1h1V9H8zm2 0v1h1V9h-1zm2 0v1h1V9h-1zM1.5 13a.499.499 0 1 0 0 1H3v1.5a.499.499 0 1 0 1 0V14h8v1.5a.499.499 0 1 0 1 0V14h1.5a.499.499 0 1 0 0-1h-13z" style="fill:currentColor;color:#050505;opacity:.7"/>
</svg>
